Origami/24x24/apps/akonaditray.svg

<svg width="24" height="24" version="1" xmlns="http://www.w3.org/2000/svg">
 <path d="M 20,11.5 A 8.5,8.5 0 0 1 11.5,20 8.5,8.5 0 0 1 3,11.5 8.5,8.5 0 0 1 11.5,3 8.5,8.5 0 0 1 20,11.5 Z" style="fill:#cddff0"/>
 <path d="m11.5 3a8.5 8.5 0 0 0 -8.5 8.5 8.5 8.5 0 0 0 0.01075 0.29 8.5 8.5 0 0 1 8.489 -8.29 8.5 8.5 0 0 1 8.4895 8.21 8.5 8.5 0 0 0 0.0105 -0.21 8.5 8.5 0 0 0 -8.5 -8.5z" style="fill:#ffffff;opacity:.2"/>
 <path d="m16.752 19.226c-4.544 2.623-10.354 1.066-12.978-3.478-2.623-4.544-1.0662-10.354 3.4775-12.977 5.354-0.02459 8.7535 11.544 9.5 16.454z" style="fill:#62b4e7"/>
 <path d="m21 11.5c0 5.246-4.254 9.5-9.5 9.5-5.2465 0-9.5-4.254-9.5-9.5 2.6556-4.649 14.374-1.8084 19 0z" style="fill:#357dc5"/>
 <path d="m2.0234 11.965c-0.0072 0.012-0.0164 0.023-0.0234 0.035 0 5.246 4.2535 9.5 9.5 9.5 5.246 0 9.5-4.254 9.5-9.5-8e-3 -3e-3 -0.017-6e-3 -0.024-9e-3 -0.258 5.017-4.395 9.009-9.476 9.009-5.09 0-9.2325-4.006-9.4765-9.035z" style="opacity:.2"/>
</svg>

<svg xmlns="http://www.w3.org/2000/svg" width="24" height="24" version="1">
 <path style="fill:#cddff0" d="M 20,11.5 A 8.5,8.5 0 0 1 11.5,20 8.5,8.5 0 0 1 3,11.5 8.5,8.5 0 0 1 11.5,3 8.5,8.5 0 0 1 20,11.5 Z"/>
 <path style="opacity:0.2;fill:#ffffff" d="m 11.5,3 a 8.5,8.5 0 0 0 -8.5,8.5 8.5,8.5 0 0 0 0.01075,0.29 8.5,8.5 0 0 1 8.489,-8.29 8.5,8.5 0 0 1 8.4895,8.21 8.5,8.5 0 0 0 0.0105,-0.21 8.5,8.5 0 0 0 -8.5,-8.5 z"/>
 <path style="fill:#62b4e7" d="M 16.752,19.226 C 12.208,21.849 6.398,20.292 3.774,15.748 1.151,11.204 2.7078,5.394 7.2515,2.771 c 5.354,-0.02459 8.7535,11.544 9.5,16.454 z"/>
 <path style="fill:#357dc5" d="M 21,11.5 C 21,16.746 16.746,21 11.5,21 6.2535,21 2,16.746 2,11.5 4.6556,6.851 16.374,9.6916 21,11.5 Z"/>
 <path style="opacity:0.2" d="M 2.0234,11.965 C 2.0162,11.977 2.007,11.988 2,12 2,17.246 6.2535,21.5 11.5,21.5 16.746,21.5 21,17.246 21,12 20.992,11.997 20.983,11.994 20.976,11.991 20.718,17.008 16.581,21 11.5,21 6.41,21 2.2675,16.994 2.0235,11.965 Z"/>
</svg>
